symbols/web/support_agent/materialsymbolsrounded/support_agent_wght600grad200_24px.svg

<svg xmlns="http://www.w3.org/2000/svg" height="24" width="24"><path d="M12 22.175q-.625 0-1.075-.45-.45-.45-.45-1.1 0-.625.45-1.075.45-.45 1.075-.45h7.35v-7.675q0-1.45-.638-2.763-.637-1.312-1.662-2.3-1.025-.987-2.35-1.575Q13.375 4.2 12 4.2q-1.35 0-2.688.587-1.337.588-2.362 1.575-1.025.988-1.662 2.3-.638 1.313-.638 2.763V17q0 .625-.45 1.075-.45.45-1.075.45-1.05 0-1.8-.75T.575 16v-2.325q0-.65.263-1.15.262-.5.737-.875l.025-.775Q1.725 8.8 2.675 7.012q.95-1.787 2.4-3.1Q6.525 2.6 8.338 1.85 10.15 1.1 12 1.1q1.875 0 3.675.75 1.8.75 3.25 2.05 1.45 1.3 2.4 3.087.95 1.788 1.075 3.863l.025.775q.45.3.725.837.275.538.275 1.138v2.475q0 .6-.275 1.213-.275.612-.725.937v.875q0 1.3-.887 2.188-.888.887-2.188.887ZM9 14.65q-.55 0-.938-.388-.387-.387-.387-.937t.387-.938Q8.45 12 9 12q.55 0 .938.387.387.388.387.938 0 .55-.387.937-.388.388-.938.388Zm6 0q-.55 0-.938-.388-.387-.387-.387-.937t.387-.938Q14.45 12 15 12q.55 0 .938.387.387.388.387.938 0 .55-.387.937-.388.388-.938.388Zm-9.475-2.5q-.1-1.325.363-2.588.462-1.262 1.337-2.25.875-.987 2.113-1.575 1.237-.587 2.712-.587 2.375 0 4.275 1.637 1.9 1.638 2.175 4.013-2.425-.025-4.412-1.088Q12.1 8.65 11 6.875q-.575 1.85-2.05 3.238Q7.475 11.5 5.525 12.15Z"/></svg>

<svg xmlns="http://www.w3.org/2000/svg" height="24" width="24"><path d="M12 22.175Q11.375 22.175 10.925 21.725Q10.475 21.275 10.475 20.625Q10.475 20 10.925 19.55Q11.375 19.1 12 19.1H19.35Q19.35 19.1 19.35 19.1Q19.35 19.1 19.35 19.1V11.425Q19.35 9.975 18.712 8.662Q18.075 7.35 17.05 6.362Q16.025 5.375 14.7 4.787Q13.375 4.2 12 4.2Q10.65 4.2 9.312 4.787Q7.975 5.375 6.95 6.362Q5.925 7.35 5.288 8.662Q4.65 9.975 4.65 11.425V17Q4.65 17.625 4.2 18.075Q3.75 18.525 3.125 18.525Q2.075 18.525 1.325 17.775Q0.575 17.025 0.575 16V13.675Q0.575 13.025 0.838 12.525Q1.1 12.025 1.575 11.65L1.6 10.875Q1.725 8.8 2.675 7.012Q3.625 5.225 5.075 3.912Q6.525 2.6 8.338 1.85Q10.15 1.1 12 1.1Q13.875 1.1 15.675 1.85Q17.475 2.6 18.925 3.9Q20.375 5.2 21.325 6.987Q22.275 8.775 22.4 10.85L22.425 11.625Q22.875 11.925 23.15 12.462Q23.425 13 23.425 13.6V16.075Q23.425 16.675 23.15 17.288Q22.875 17.9 22.425 18.225V19.1Q22.425 20.4 21.538 21.288Q20.65 22.175 19.35 22.175ZM9 14.65Q8.45 14.65 8.062 14.262Q7.675 13.875 7.675 13.325Q7.675 12.775 8.062 12.387Q8.45 12 9 12Q9.55 12 9.938 12.387Q10.325 12.775 10.325 13.325Q10.325 13.875 9.938 14.262Q9.55 14.65 9 14.65ZM15 14.65Q14.45 14.65 14.062 14.262Q13.675 13.875 13.675 13.325Q13.675 12.775 14.062 12.387Q14.45 12 15 12Q15.55 12 15.938 12.387Q16.325 12.775 16.325 13.325Q16.325 13.875 15.938 14.262Q15.55 14.65 15 14.65ZM5.525 12.15Q5.425 10.825 5.888 9.562Q6.35 8.3 7.225 7.312Q8.1 6.325 9.338 5.737Q10.575 5.15 12.05 5.15Q14.425 5.15 16.325 6.787Q18.225 8.425 18.5 10.8Q16.075 10.775 14.088 9.712Q12.1 8.65 11 6.875Q10.425 8.725 8.95 10.113Q7.475 11.5 5.525 12.15Z"/></svg>
